X:079
T: Low in the Broom
N: O'Farrell's Pocket Companion v.1 (Sky ed. p.50-51)
M: C
N: "Scotch"
L: 1/8
R: reel
Q: 360
K: D
d|ADEF A>dAF|E>DEF E3 {de}f| D2EF dcBA|B>ABc d3 :|
P:2
A|de/f/ ed BdAF|A2 gf e2 ag|fg/a/ fd BdAF| A2 Bc d3 :|
P:3
z|D2 FE d>cBA|B>AB>d {d}e2 d/e/f|B,2 CD F>d G/F/E/D/|
A2 Bc d3A|de/f/ ed Bd B/A/G/F/|A2 g>f e2 ag|
fg/a/ g/f/e/d/ BdAF| A2 B/A/B/c/ d3 :|
